X: 1
T: St Michael's Mount
S: Mike O'Connor <moconnor:ision.co.uk> tradtunes 2010-4-18
M: 4/4
L: 1/8
R: barndance
K: D
|:.dz2A BAFD | ddDa bAFD | EDFD EDFD | EDFA BABc |
  .dz2A BAFD | DDdA BAFD | EDFD GDAD |1 BABc dABc :|2 BABc dAde ||
|: f3f  ecA2 | BABd BAFE | (3DDD FA GBdB | Acef ggfe |
   f2df ecAc | Bcdc BAFE | (3DDD FA GBdB |1 Acec dA de :|2 Acec dABc |]
